assets/images/visa.svg

<svg width="34" height="24" viewBox="0 0 34 24" fill="none" xmlns="http://www.w3.org/2000/svg">
<rect x="0.5" y="0.5" width="33" height="23" rx="3.5" fill="white"/>
<path fill-rule="evenodd" clip-rule="evenodd" d="M10.7501 15.8598H8.69031L7.14576 9.79394C7.07245 9.51491 6.91679 9.26823 6.68782 9.15197C6.11639 8.85979 5.48672 8.62727 4.7998 8.50999V8.27646H8.11789C8.57583 8.27646 8.91929 8.62727 8.97653 9.03469L9.77793 13.4102L11.8367 8.27646H13.8392L10.7501 15.8598ZM14.984 15.8598H13.0388L14.6406 8.27646H16.5858L14.984 15.8598ZM19.1025 10.3773C19.1597 9.96884 19.5032 9.7353 19.9039 9.7353C20.5336 9.67667 21.2195 9.79394 21.7919 10.0851L22.1354 8.45237C21.5629 8.21884 20.9333 8.10156 20.3619 8.10156C18.4738 8.10156 17.1 9.15197 17.1 10.6098C17.1 11.7188 18.0731 12.3012 18.7601 12.652C19.5032 13.0018 19.7894 13.2353 19.7322 13.5851C19.7322 14.1098 19.1597 14.3433 18.5883 14.3433C17.9014 14.3433 17.2145 14.1684 16.5858 13.8763L16.2424 15.51C16.9293 15.8012 17.6724 15.9185 18.3594 15.9185C20.4763 15.9761 21.7919 14.9267 21.7919 13.3516C21.7919 11.368 19.1025 11.2518 19.1025 10.3773ZM28.5998 15.8598L27.0553 8.27646H25.3962C25.0528 8.27646 24.7093 8.50999 24.5948 8.85979L21.7347 15.8598H23.7372L24.1369 14.7518H26.5973L26.8263 15.8598H28.5998ZM25.6824 10.3186L26.2539 13.1767H24.6521L25.6824 10.3186Z" fill="#172B85"/>
<rect x="0.5" y="0.5" width="33" height="23" rx="3.5" stroke="#EDEDF2"/>
</svg>

<svg width="34" height="24" fill="none" xmlns="http://www.w3.org/2000/svg"><rect x=".5" y=".5" width="33" height="23" rx="3.5" fill="#fff"/><path fill-rule="evenodd" clip-rule="evenodd" d="M10.75 15.86H8.69L7.146 9.794c-.074-.28-.23-.526-.458-.642A6.573 6.573 0 0 0 4.8 8.51v-.234h3.318c.458 0 .801.351.859.759l.8 4.375 2.06-5.134h2.002L10.75 15.86Zm4.234 0h-1.945l1.602-7.584h1.945l-1.602 7.584Zm4.118-5.483c.058-.408.401-.642.802-.642a3.534 3.534 0 0 1 1.888.35l.343-1.633a4.801 4.801 0 0 0-1.773-.35c-1.888 0-3.262 1.05-3.262 2.508 0 1.109.973 1.691 1.66 2.042.743.35 1.03.583.972.933 0 .525-.572.758-1.144.758a4.79 4.79 0 0 1-2.002-.467l-.344 1.634a5.47 5.47 0 0 0 2.117.409c2.117.057 3.433-.992 3.433-2.567 0-1.984-2.69-2.1-2.69-2.975ZM28.6 15.86l-1.545-7.584h-1.659a.863.863 0 0 0-.801.584l-2.86 7h2.002l.4-1.108h2.46l.23 1.108H28.6Zm-2.918-5.541.572 2.858h-1.602l1.03-2.858Z" fill="#172B85"/><rect x=".5" y=".5" width="33" height="23" rx="3.5" stroke="#EDEDF2"/></svg>
